X: 4
T: Munster Buttermilk
R: jig
M: 6/8
L: 1/8
K: Dmix
A|d2f edB | AFF FEF | AFF FEF |AFE D2 A|d2f edB | AFF FEF | AFE DEF | E3 D2 :|A|A2 B d2e| ~f3 fed | ~f3 fed | efe edB|A2 B d2e| ~f3 fed |e2 e f2 e|d3 d2:|


Tune 1077	Setting 14311

